src/ui/mail.svg

<?xml version="1.0" encoding="UTF-8"?><svg xmlns="http://www.w3.org/2000/svg" viewBox="0 0 32 32"><defs><style>.uuid-0e525cdf-3fb9-42ca-b9b8-9eeb87ad5747{fill:none;}.uuid-0e525cdf-3fb9-42ca-b9b8-9eeb87ad5747,.uuid-2bc57761-73e4-4b42-a535-07421466f44b{stroke-width:0px;}.uuid-2bc57761-73e4-4b42-a535-07421466f44b{fill:#151515;}</style></defs><g id="uuid-e0ca495b-a8c9-4213-82b0-fcfd80d6deda"><rect class="uuid-0e525cdf-3fb9-42ca-b9b8-9eeb87ad5747" x="0" width="32" height="32"/></g><g id="uuid-94922686-cc6c-410b-b0cd-984b2386a817"><path class="uuid-2bc57761-73e4-4b42-a535-07421466f44b" d="M29.5,5H2.5c-.8271,0-1.5.6729-1.5,1.5v19c0,.8271.6729,1.5,1.5,1.5h27c.8271,0,1.5-.6729,1.5-1.5V6.5c0-.8271-.6729-1.5-1.5-1.5ZM3,8.2373l7.7627,7.7627-7.7627,7.7627v-15.5254ZM16,18.7627L4.2373,7h23.5254l-11.7627,11.7627ZM12,17.2373l3.0278,3.0278c.2598.2598.605.4028.9722.4028s.7124-.1431.9722-.4028l3.0278-3.0278,7.7627,7.7627H4.2373l7.7627-7.7627ZM21.2373,16l7.7627-7.7627v15.5254l-7.7627-7.7627Z"/></g></svg>

<svg xmlns="http://www.w3.org/2000/svg" viewBox="0 0 32 32">
  <path d="M0 0h32v32H0z" fill="none"/>
  <path d="M29.5 5h-27C1.673 5 1 5.673 1 6.5v19c0 .827.673 1.5 1.5 1.5h27c.827 0 1.5-.673 1.5-1.5v-19c0-.827-.673-1.5-1.5-1.5ZM3 8.237 10.763 16 3 23.763V8.237Zm13 10.526L4.237 7h23.526L16 18.763Zm-4-1.526 3.028 3.028c.26.26.605.403.972.403s.712-.143.972-.403L20 17.237 27.763 25H4.237L12 17.237ZM21.237 16 29 8.237v15.526L21.237 16Z" fill="#151515"/>
</svg>
